bootstrap/mailbox2.svg

<svg xmlns="http://www.w3.org/2000/svg" width="16" height="16" fill="currentColor" class="bi bi-mailbox2" viewBox="0 0 16 16">
  <path d="M9 8.5h2.793l.853.854A.5.5 0 0 0 13 9.5h1a.5.5 0 0 0 .5-.5V8a.5.5 0 0 0-.5-.5H9z"/>
  <path d="M12 3H4a4 4 0 0 0-4 4v6a1 1 0 0 0 1 1h14a1 1 0 0 0 1-1V7a4 4 0 0 0-4-4M8 7a4 4 0 0 0-1.354-3H12a3 3 0 0 1 3 3v6H8zm-3.415.157C4.42 7.087 4.218 7 4 7s-.42.086-.585.157C3.164 7.264 3 7.334 3 7a1 1 0 0 1 2 0c0 .334-.164.264-.415.157"/>
</svg>

<svg viewBox="0 0 16 16" xmlns="http://www.w3.org/2000/svg"><g><path d="M9 8.5h2.79l.85.85 0-.001c.09.09.22.14.35.14h1v0c.27 0 .5-.23.5-.5v-1 0c0-.28-.23-.5-.5-.5h-5v1Z"/><path d="M12 3H4v0C1.79 3 0 4.79 0 7v6 0c0 .55.44 1 1 1h14v0c.55 0 1-.45 1-1V7v0c0-2.21-1.8-4-4-4ZM8 7v0c0-1.15-.5-2.25-1.36-3h5.35v0c1.65 0 3 1.34 3 3v6h-7V7Zm-3.42.15c-.17-.07-.37-.16-.59-.16 -.22 0-.42.08-.585.15 -.26.1-.42.17-.42-.16v0c0-.56.44-1 1-1 .55 0 1 .44 1 1 0 .33-.17.26-.42.15Z"/></g></svg>
